X:248
T:Eleanor Kane's
R:reel
C:Ed Reavey
Z:transcribed by Dave Marshall
M:C|
K:G
|: BGFG EFGA | Bgfg edBA | G3A BGEF | GEFD EDB,D |
G3A BAGA | Bgfg efga | bgaf gafg |1 ecAF G2dc :|2 ecAF G3A |
|: Bdef gfga | bgaf gfed | BGEF G3A | Bdd^c d2ef |
g2fa gedc | B2Ac BGEF | G2BG FGAc |1 BGAF G3A :| BGAF G4 |
